X:1
T:Sport we my lovely treasure - Morley
T:#
%%score { 1 | 2 } 3 4
L:1/8
Q:1/4=112
M:4/4
K:Bb
V:1 treble nm="Soprano I" snm="S"
V:2 treble 
V:3 treble nm="Alto" snm="A"
V:4 treble-8 nm="Tenor" snm="T"
V:1
 z8 |"^Sport we my lovely treasure" z4 f4 | d4 z4 | z2 f2 dcd"^Thomas Morley\n(1557-1603)"e | %4
w: |Sport|we,|sport we my love- ly|
[M:4/4] f4 B2 d2 | e3 e d2 d2 | c4 d4 | z4 z2 f2 | dcde f4 | B2 B2 B2 A2 | (B2 G2) F2 B2 | %11
w: trea- sure, sport|we my love- ly|trea- sure,|sport|we my love- ly trea-|sure, my love- iy|trea\- * sure, my|
 A2 B2 (B2 A2) | B4 B4 | A6 A2 | G2 A2 B4 | A4 c4 | d6 d2 | c2 c2 c4 | c2 c3 B A2 | G2 (F2 GA) B2 | %20
w: love- ly trea\- *|sure. For|why, long|love, long serv-|ing, for|why, long|love, long serv-|ing, Ask- eth e-|qual de\- * * serv-|
 A2 B2 (B2 A2) | B8 | z2 g3 f e2 | d2 c2 (=B2 c2) | G2 (EF) G4 | G2 G2 A2 F2 | z2 f3 e d2 | %27
w: ing, de- serv- *|ing,|ask- eth e-|qual de- serv\- *|ing, de\- * serv-|ing, de- serv- ing,|ask- eth e-|
 c2 B2 A2 (FG) | (A2 B2 c4) | d6 d2 | c3 A B3 c | (F2 G2) A2 F2 | G3 A B2 G2 | (A2 B2 A4) | G4 z4 | %35
w: qual, e- qual de\- *|serv\- * *|ing. Let|be our sport- ful|plea\- * sure, let|be our sport- ful|plea\- * *|sure,|
 z2 f2 e3 c | d3 e (f2 d2) | =e2 (f4 e2) | f2 c2 d3 d | c2 B2 c4 | c6 f2 | e2 d2 c4 | d8 | %43
w: let be our|sport- ful plea\- *|sure, plea\- *|sure, let be our|sport- ful plea-|sure, our|sport- ful plea-|sure.|
 B2 e3 e c2- | cc f3 f d2 | z2 B2 e3 e | c2 c2 dcBc | d4 c4 | z2 B2 AGF (G | A2) (B4 A2) | B6 f2 | %51
w: To kiss, to kiss,|* to kiss, to kiss,|to kiss, to|kiss, to kiss the while we|may now,|to kiss the while we|* may *|now; And|
 f3 f f2 d2 | d2 d2 d2 c2 | d4 d4 | z8 | f6 ed | c2 d2 e4 | d4 d4- | d2 cB A2 B2 | c4 G2 c2- | %60
w: that you wot well|what Love's o- ther|to- ken.||Joy more than|can be spok-|en, joy|* more than can be|spok- en, joy|
 c2 BA B2 c2 | (d4 c4) | =B4 z4 | z4 d4- | d2 cB A2 B2 | c4 A2 A2 | G8 | A8 |] %68
w: * more than can be|spok\- *|en,|joy|* more than can be|spok- en, be|spok-|en.|
V:2
 f8 | d4 z4 | z2 f2 d4 | z4 z2 f2 |[M:4/4] dcde f4 | B2 B2 B2 B2 | A4 B4 | z8 | z2 f2 dcde | %9
w: Sport|we,|sport we,|sport|we my love- ly trea-|sure, my love- ly|trea- sure,||sport we my love- ly|
 f4 c2 c2 | e3 e dcde | f2 d2 c4 | d4 d4 | c6 c2 | c2 c2 d4 | c4 A4 | B6 B2 | A2 A2 G4 | A4 z4 | %19
w: trea- sure, sport|we my love- ly, love- ly,|love- ly trea-|sure. For|why, long|love, long serv-|ing, for|why, long|love, long serv-|ing,|
 z2 f3 e d2 | c2 d2 e4 | d2 d3 c B2 | A2 (G2 AB) c2 | =B2 g3 f e2 | d2 c2 (c2 =B2) | c2 c3 B A2 | %26
w: Ask- eth e-|qual de- serv-|ing, ask- eth e-|qual de\- * * serv-|ing, ask- eth e-|qual de- serv\- *|ing, ask- eth e-|
 G2 (F2 GA) B2 | A2 f3 e d2 | c2 B2 (B2 A2) | B8 | z8 | z4 z2 f2 | e3 c d2 =e2 | (f2 d2) c2 c2 | %34
w: qual de\- * * serv-|ing, ask- eth e-|qual de- serv\- *|ing.||Let|be our sport- ful|plea\- * sure, our|
 e2 e2 d4 | c2 z2 z2 c2 | B3 G A2 =B2 | (c2 A2 G4) | A2 A2 B3 B | A2 F2 G4 | A4 z2 c2 | c2 B2 A4 | %42
w: sport- ful plea-|sure, let|be our sport- ful|plea- * *|sure, let be our|sport- ful plea-|sure, our|sport- ful plea-|
 B4 z4 | z2 B2 e3 e | c3 c f3 f | d4 G2 c2- | cc A2 F2 z2 | z2 B2 AGFG | (A2 d2) c2 f2 | fede f4 | %50
w: sure.|To kiss, to|kiss, to kiss, to|kiss, to kiss,|* to kiss now,|to kiss the while we|may * now, to|kiss the while we may|
 d6 d2 | c3 c c2 B2 | A2 A2 A2 G2 | A4 A4 | B6 AG | F2 G2 A4- | A4 G2 A2 | B4 F4 | z8 | z4 e4- | %60
w: now; And|that you wot well|what Love's o- ther|to- ken.|Joy more than|can be spok\-|* en, be|spok- en,||joy|
 e2 dc d2 e2 | (f4 e4) | d8 | z4 f4- | f2 ed c2 d2 | e4 c2 c2 | c8 | c8 |] %68
w: * more than can be|spok\- *|en,|joy|* more than can be|spok- en, be|spok-|en.|
V:3
 z4 F4- | F4 D4 | z4 z2 F2 | DCDE F4 |[M:4/4] B,6 F2 | G4 F4 | F4 B,4 | z2 F2 DCDE | F4 B,2 F2 | %9
w: Sport|* we,|sport|we my love- ly trea-|sure, my|love- ly|trea- sure,|sport we my love- ly|trea- sure, sport|
w: |||||||||
 DCDE F4 | B,4 z2 B,2 | C2 (DE) F4 | F4 B,4 | F6 F2 | =E2 F2 (B,CD_E) | F4 z2 F2 | F4 D2 (G2- | %17
w: we my love- ly trea-|sure, my|love- ly * trea-|sure. For|why, long|love, long serv\- * * *|ing, for|why, long love,|
w: ||||||||
 GF) F4 =E2 | F4 z2 F2- | FE D2 C2 (B,2- | F2) (D2 C4) | B,8 | z4 z2 G2- | GF E2 D2 (C2 | %24
w: * * long serv-|ing, Ask\-|* eth e- qual de\-|* serv\- *|ing,|ask\-|* eth e- qual de\-|
w: |||||||
 =B,2) (C2 D4) | =E2 E2 F4 | C2 z2 z2 F2- | FE D2 C2 (B,2 | C2) (D2 C4) | B,8 | F4 E3 C | %31
w: * serv\- *|ing, de- serv-|ing, ask\-|* eth e- qual de\-|* serv\- *|ing.|Let be our|
w: |||||||
 D2 E2 (F2 D2) | C3 F B,2 C2 | F2 B,2 F4 | C2 c2 B3 G | A3 B (c2 A2) | G4 F2 G2- | G2 C2 D2 C2- | %38
w: sport- ful plea\- *|sure, let be our|sport- ful plea-|sure, let be our|sport- ful plea\- *|sure, our sport\-|* ful plea- sure,|
w: |||||||
 C2 F2 F4 | F,2 (F4 E2) | F2 F2 _A4- | A2 F2 F4 | F2 F2 B3 B | G3 G c3 c | A4 z2 F2 | G3 G E2 C2 | %46
w: * our sport-|* plea\- *|sure, our sport\-|* ful plea-|sure. To kiss, to|kiss, to kiss, to|kiss, to|kiss, to kiss, to|
w: |ful * *|||||||
 F3 F D2 G2 | FEDE F4 | F,2 B,2 C2 D2 | C2 B,2 C4 | B,6 B2 | A3 A A2 G2 | ^F2 F2 F2 G2 | ^F4 F4 | %54
w: kiss, to kiss, to|kiss the while we may|now, to kiss the|while we may|now; And|that you wot well|what Love's o- ther|to- ken.|
w: ||||||||
 z4 D4- | D2 CB, A,2 B,2 | C8 | G,4 z4 | F6 ED | C2 (D2 E2 F2) | G8 | D4 (E2 F2) | G4 B4- | %63
w: Joy|* more than can be|spok-|en,|joy more than|can be * *|spok-|en, spok\- *|en, joy|
w: |||||||||
 B2 AG F2 G2 | (A4 F4) | G4 F4 | =E2 F2 (F2 E2) | F8 |] %68
w: * more than can be|spok\- *|en, than|can be spok\- *|en.|
w: |||||
V:4
 z8 | B8 | B,4 z2 B2 | B8 |[M:4/4][K:treble-8] z4 z2 B2 | GFGA B4 | F4 z2 f2 | dcde f4 | B8 | %9
w: |Sport|we, sport|we,|sport|we, my love- ly trea-|sure, sport|we my love- ly trea-|sure,|
 z4 z2 F2 | GFGA B2 G2 | F8 | B,8 | z8 | z8 | z4 F4 | B6 G2 | A3 B c4 | F8 | z8 | z8 | z2 B3 A G2 | %22
w: sport|we my love- ly, love- ly|trea-|sure.|||For|why, long|love, long serv-|ing,|||Ask- eth e-|
 F2 (E2 D2 C2) | G8- | G8 | C4 z2 F2- | FE D2 C2 B,2 | F8- | F8 | B,6 B2 | A3 F G3 A | (B2 G2) F4 | %32
w: qual de\- * *|serv\-||ing, ask\-|* eth e- qual de-|serv\-||ing. Let|be our sport- ful|plea\- * sure,|
 z8 | z4 z2 f2 | e3 c d3 e | (f2 d2) c4 | z4 z2 G2 | c3 A B2 c2 | F4 B2 B2 | f2 d2 c4 | F6 F2 | %41
w: |let|be our sport- ful|plea\- * sure,|let|be our sport- ful|plea- sure, our|sport- ful plea-|sure, our|
 _A2 B2 F4 | B,6 B2 | e3 e c3 c | f3 f d2 B2 | z2 G2 c3 c | A2 F2 BAGA | B4 F4 | z2 B,2 FEDE | %49
w: sport- ful plea-|sure. To|kiss, to kiss, to|kiss, to kiss now,|to kiss, to|kiss, to kiss the while we|may now,|to kiss the while we|
 F2 G2 F4 | B,6 B,2 | F3 F F2 G2 | D2 D2 D2 E2 | D4 D4 | G6 FE | D2 E2 F4- | F4 C4 | z4 B4- | %58
w: may, we may|now; And|that you wot well|what Love's o- ther|to- ken.|Joy more than|can be spok\-|* en,|joy|
 B2 AG F2 G2 | (A2 B2) c4 | G8 | z8 | z4 G4- | G2 FE D2 E2 | F8 | C4 C4 | C8 | F8 |] %68
w: * more than can be|* * spok-|en,||joy|* more than can be|spok-|en, be|spok-|en.|

